svg/fluentui-system-icons/ic_fluent_calendar_play_24_filled.svg

<svg width="24" height="24" viewBox="0 0 24 24" fill="none" xmlns="http://www.w3.org/2000/svg">
<path d="M21 8.5V12.0218C19.9897 11.375 18.7886 11 17.5 11C13.9101 11 11 13.9101 11 17.5C11 18.7886 11.375 19.9897 12.0218 21H6.25C4.45507 21 3 19.5449 3 17.75V8.5H21ZM17.75 3C19.5449 3 21 4.45507 21 6.25V7H3V6.25C3 4.45507 4.45507 3 6.25 3H17.75ZM17.5 23C20.5376 23 23 20.5377 23 17.5C23 14.4623 20.5376 12 17.5 12C14.4624 12 12 14.4623 12 17.5C12 20.5377 14.4624 23 17.5 23ZM16.5964 15.0001C16.7124 15.0001 16.8181 15.0323 16.9134 15.097L19.7199 16.9372C19.807 16.9933 19.8754 17.0676 19.9251 17.1604C19.9748 17.2511 19.9997 17.3502 19.9997 17.4579C19.9997 17.5615 19.9759 17.6605 19.9282 17.7554C19.9159 17.7799 19.9025 17.8029 19.8878 17.8247C19.8453 17.8879 19.7924 17.9401 19.7293 17.9819L16.9228 19.8967C16.8853 19.9215 16.8475 19.9421 16.809 19.9579C16.7941 19.9641 16.7792 19.9695 16.7642 19.9743C16.7124 19.9913 16.6565 19.9999 16.5964 19.9999C16.5177 19.9999 16.442 19.9838 16.3695 19.9516C16.297 19.917 16.2328 19.8716 16.1768 19.8158C16.1229 19.7574 16.0795 19.6905 16.0463 19.6153C16.0152 19.5398 15.9997 19.461 15.9997 19.379V15.621C15.9997 15.5369 16.0152 15.4572 16.0463 15.3817C16.0795 15.3062 16.1229 15.2406 16.1768 15.1845C16.2307 15.1284 16.2939 15.0842 16.3664 15.0517C16.4389 15.0174 16.5156 15.0001 16.5964 15.0001Z" fill="#212121"/>
</svg>

<svg xmlns="http://www.w3.org/2000/svg" width="24" height="24"><path d="M21 8.5v3.522A6.5 6.5 0 0 0 12.022 21H6.25A3.25 3.25 0 0 1 3 17.75V8.5h18ZM17.75 3A3.25 3.25 0 0 1 21 6.25V7H3v-.75A3.25 3.25 0 0 1 6.25 3h11.5Zm-.25 20a5.5 5.5 0 1 0 0-11 5.5 5.5 0 0 0 0 11Zm-.904-8a.55.55 0 0 1 .317.097l2.807 1.84a.609.609 0 0 1 .28.52.654.654 0 0 1-.112.368.565.565 0 0 1-.159.157l-2.806 1.915a.664.664 0 0 1-.159.077.553.553 0 0 1-.395-.023.695.695 0 0 1-.192-.135.724.724 0 0 1-.13-.2.615.615 0 0 1-.047-.237v-3.758a.622.622 0 0 1 .366-.57.532.532 0 0 1 .23-.05Z"/></svg>
